source/assets/img/LinkedIn_Logo.svg

<svg clip-rule="evenodd" fill-rule="evenodd" stroke-linejoin="round" stroke-miterlimit="2" viewBox="0 0 924 226" xmlns="http://www.w3.org/2000/svg"><g fill="#0a66c2" fill-rule="nonzero" transform="translate(-138.462 -287.425)"><path d="m1048.57 498.296h.04c2.27 0 4.14-1.869 4.14-4.14 0-.08 0-.159-.01-.239 0-3.105-1.87-4.589-5.72-4.589h-6.21v16.26h2.34v-7.088h2.87l.06.086 4.46 7.002h2.5l-4.79-7.247zm-2.71-1.629h-2.71v-5.496h3.44c1.77 0 3.79.289 3.79 2.612 0 2.671-2.04 2.884-4.53 2.884m-907.388-176.158h34.482v125.606h63.839v31.822h-98.321zm113.566 50.687h33.127v106.682h-33.127zm16.563-53.037c10.541.002 19.214 8.676 19.214 19.217 0 10.542-8.675 19.217-19.217 19.217s-19.217-8.675-19.217-19.217 8.675-19.217 19.217-19.217zm155.137 2.326h33.127v94.083l37.544-43.42h40.615l-43.479 49.39 42.564 57.385h-41.636l-35.166-52.734h-.435v52.727h-33.127zm-120.205 50.722h31.812v14.579h.452c6.465-11.077 18.55-17.716 31.367-17.233 33.593 0 39.776 22.102 39.776 50.815v58.503h-33.127v-51.867c0-12.381-.227-28.296-17.253-28.296-17.219 0-19.876 13.482-19.876 27.395v52.755h-33.127z"/><path d="m604.777 412.129c.003-.156.005-.313.005-.469 0-10.896-8.966-19.862-19.862-19.862-.161 0-.321.002-.482.006-11.965-.745-22.467 8.373-23.409 20.325zm28.061 47.274c-11.141 13.51-27.791 21.311-45.301 21.226-33.127 0-59.649-22.113-59.649-56.354s26.519-56.343 59.649-56.343c30.963 0 50.38 22.084 50.38 56.343v10.387h-76.888c1.97 12.124 12.685 21.038 24.965 20.77 9.571-.06 18.484-4.975 23.641-13.037zm74.128-62.42c-16.563 0-26.501 11.06-26.501 27.175s9.934 27.184 26.501 27.184 26.526-11.042 26.526-27.184c0-16.143-9.942-27.175-26.526-27.175m57.023 80.875h-30.497v-14.148h-.452c-7.75 10.423-19.946 16.644-32.934 16.798-31.829 0-52.796-22.972-52.796-55.457 0-29.834 18.555-57.23 49.055-57.23 13.71 0 26.516 3.751 34.028 14.148h.435v-61.495h33.157zm223.637.062h-33.127v-51.878c0-12.371-.221-28.296-17.229-28.296-17.254 0-19.894 13.478-19.894 27.395v52.775h-33.126v-106.682h31.801v14.579h.446c6.475-11.071 18.559-17.708 31.377-17.232 33.575 0 39.766 22.084 39.766 50.815zm-140.754-121.269c-.002 0-.003 0-.004 0-10.546 0-19.224-8.677-19.224-19.223s8.678-19.224 19.224-19.224c10.545 0 19.222 8.676 19.224 19.22v.004c0 10.544-8.676 19.222-19.22 19.223m16.563 121.269h-33.161v-106.686h33.161zm140.705-190.479h-190.513c-8.943-.101-16.388 7.171-16.497 16.114v191.304c.105 8.948 7.549 16.228 16.497 16.132h190.513c8.97.113 16.44-7.166 16.56-16.132v-191.317c-.12-8.962-7.6-16.233-16.56-16.115m42.01 194.658c-8.31.08-15.1 6.936-15.1 15.244 0 8.364 6.88 15.246 15.24 15.246 8.37 0 15.25-6.882 15.25-15.246 0-8.308-6.79-15.164-15.1-15.244zm0 28.744c-.08.001-.15.002-.23.002-7.33 0-13.36-6.034-13.36-13.368 0-7.333 6.03-13.368 13.36-13.368 7.25 0 13.25 5.897 13.37 13.145v.225c.15 7.173-5.62 13.202-12.79 13.357h-.35"/></g></svg>

<?xml version="1.0" encoding="UTF-8" standalone="no"?>
<!DOCTYPE svg PUBLIC "-//W3C//DTD SVG 1.1//EN" "http://www.w3.org/Graphics/SVG/1.1/DTD/svg11.dtd">
<svg width="100%" height="100%" viewBox="0 0 924 226" version="1.1" xmlns="http://www.w3.org/2000/svg" xmlns:xlink="http://www.w3.org/1999/xlink" xml:space="preserve" xmlns:serif="http://www.serif.com/" style="fill-rule:evenodd;clip-rule:evenodd;stroke-linejoin:round;stroke-miterlimit:2;">
    <g transform="matrix(1,0,0,1,-138.462,-287.425)">
        <path d="M1048.57,498.296C1048.58,498.296 1048.59,498.296 1048.61,498.296C1050.88,498.296 1052.75,496.427 1052.75,494.156C1052.75,494.076 1052.75,493.997 1052.74,493.917C1052.74,490.812 1050.87,489.328 1047.02,489.328L1040.81,489.328L1040.81,505.588L1043.15,505.588L1043.15,498.5L1046.02,498.5L1046.08,498.586L1050.54,505.588L1053.04,505.588L1048.25,498.341L1048.57,498.296ZM1045.86,496.667L1043.15,496.667L1043.15,491.171L1046.59,491.171C1048.36,491.171 1050.38,491.46 1050.38,493.783C1050.38,496.454 1048.34,496.667 1045.85,496.667M138.462,320.509L172.944,320.509L172.944,446.115L236.783,446.115L236.783,477.937L138.462,477.937L138.462,320.509ZM252.028,371.196L285.155,371.196L285.155,477.878L252.028,477.878L252.028,371.196ZM268.591,318.159C279.132,318.161 287.805,326.835 287.805,337.376C287.805,347.918 279.13,356.593 268.588,356.593C258.046,356.593 249.371,347.918 249.371,337.376C249.371,326.834 258.046,318.159 268.588,318.159C268.589,318.159 268.59,318.159 268.591,318.159M423.728,320.485L456.855,320.485L456.855,414.568L494.399,371.148L535.014,371.148L491.535,420.538L534.099,477.923L492.463,477.923L457.297,425.189L456.862,425.189L456.862,477.916L423.735,477.916L423.728,320.485ZM303.523,371.207L335.335,371.207L335.335,385.786L335.787,385.786C342.252,374.709 354.337,368.07 367.154,368.553C400.747,368.553 406.93,390.655 406.93,419.368L406.93,477.871L373.803,477.871L373.803,426.004C373.803,413.623 373.576,397.708 356.55,397.708C339.331,397.708 336.674,411.19 336.674,425.103L336.674,477.858L303.547,477.858L303.523,371.207Z" style="fill:rgb(10,102,194);fill-rule:nonzero;"/>
        <path d="M604.777,412.129C604.78,411.973 604.782,411.816 604.782,411.66C604.782,400.764 595.816,391.798 584.92,391.798C584.759,391.798 584.599,391.8 584.438,391.804C572.473,391.059 561.971,400.177 561.029,412.129L604.777,412.129ZM632.838,459.403C621.697,472.913 605.047,480.714 587.537,480.629C554.41,480.629 527.888,458.516 527.888,424.275C527.888,390.034 554.407,367.932 587.537,367.932C618.5,367.932 637.917,390.016 637.917,424.275L637.917,434.662L561.029,434.662C562.999,446.786 573.714,455.7 585.994,455.432C595.565,455.372 604.478,450.457 609.635,442.395L632.838,459.403ZM706.966,396.983C690.403,396.983 680.465,408.043 680.465,424.158C680.465,440.273 690.399,451.342 706.966,451.342C723.533,451.342 733.492,440.3 733.492,424.158C733.492,408.015 723.55,396.983 706.966,396.983M763.989,477.858L733.492,477.858L733.492,463.71L733.04,463.71C725.29,474.133 713.094,480.354 700.106,480.508C668.277,480.508 647.31,457.536 647.31,425.051C647.31,395.217 665.865,367.821 696.365,367.821C710.075,367.821 722.881,371.572 730.393,381.969L730.828,381.969L730.828,320.474L763.985,320.474L763.989,477.858ZM987.626,477.92L954.499,477.92L954.499,426.042C954.499,413.671 954.278,397.746 937.27,397.746C920.016,397.746 917.376,411.224 917.376,425.141L917.376,477.916L884.25,477.916L884.25,371.234L916.051,371.234L916.051,385.813L916.497,385.813C922.972,374.742 935.056,368.105 947.874,368.581C981.449,368.581 987.64,390.665 987.64,419.396L987.626,477.92ZM846.872,356.651C846.87,356.651 846.869,356.651 846.868,356.651C836.322,356.651 827.644,347.974 827.644,337.428C827.644,326.882 836.322,318.204 846.868,318.204C857.413,318.204 866.09,326.88 866.092,337.424C866.092,337.425 866.092,337.426 866.092,337.428C866.092,347.972 857.416,356.65 846.872,356.651M863.435,477.92L830.274,477.92L830.274,371.234L863.435,371.234L863.435,477.92ZM1004.14,287.441L813.627,287.441C804.684,287.34 797.239,294.612 797.13,303.555L797.13,494.859C797.235,503.807 804.679,511.087 813.627,510.991L1004.14,510.991C1013.11,511.104 1020.58,503.825 1020.7,494.859L1020.7,303.542C1020.58,294.58 1013.1,287.309 1004.14,287.427M1046.15,482.085C1037.84,482.165 1031.05,489.021 1031.05,497.329C1031.05,505.693 1037.93,512.575 1046.29,512.575C1054.66,512.575 1061.54,505.693 1061.54,497.329C1061.54,489.021 1054.75,482.165 1046.44,482.085L1046.15,482.085M1046.15,510.829C1046.07,510.83 1046,510.831 1045.92,510.831C1038.59,510.831 1032.56,504.797 1032.56,497.463C1032.56,490.13 1038.59,484.095 1045.92,484.095C1053.17,484.095 1059.17,489.992 1059.29,497.24L1059.29,497.465C1059.44,504.638 1053.67,510.667 1046.5,510.822L1046.15,510.822" style="fill:rgb(10,102,194);fill-rule:nonzero;"/>
    </g>
</svg>
